static/images/icons/snipcart.svg

<svg height="31" viewBox="0 0 27 31" width="27" xmlns="http://www.w3.org/2000/svg"><path d="m24.7 7.1-10-5.8c-.9-.5-2.3-.5-3.2 0l-10 5.8c-.8.6-1.5 1.8-1.5 2.8v11.5c0 1 .7 2.2 1.6 2.7l10 5.8c.9.5 2.3.5 3.2 0l10-5.8c.9-.5 1.6-1.7 1.6-2.7v-11.5c-.1-1-.8-2.2-1.7-2.8zm-2.7 6.3h-1v-1.8c0-1.3-1-1.8-3-1.8h-.1c-4.8 0-4.4-1.8-4.5-2.5h-.1c-.1.7.3 2.5-4.5 2.5h-.1c-2 0-3 .4-3 1.8v1.4l16.3 4.7v2c0 1.9-.9 3-4.1 3h-.2c-2.4 0-4 .5-4 2.5h-1c0-1.9-1.5-2.5-4-2.5-3.1 0-4.1-1.1-4.1-3v-1.7h1v1.8c0 1.3 1 1.8 3 1.8h.1c4.8 0 4.4 1.8 4.5 2.5h.1c.1-.7-.3-2.5 4.5-2.5h.2c2 0 3-.4 3-1.8v-1l-16.4-4.8v-2.3c0-1.9.9-3 4.1-3h.2c2.5 0 4-.5 4-2.5h1c0 1.9 1.5 2.5 4 2.5h.1c3.1 0 4.1 1.1 4.1 3z" fill="#f6e767"/></svg>

<?xml version="1.0" encoding="UTF-8"?>
<svg width="27px" height="31px" viewBox="0 0 27 31" version="1.1" xmlns="http://www.w3.org/2000/svg" xmlns:xlink="http://www.w3.org/1999/xlink">
    <!-- Generator: Sketch 56.3 (81716) - https://sketch.com -->
    <title>Untitled 2</title>
    <desc>Created with Sketch.</desc>
    <g id="Page-1" stroke="none" stroke-width="1" fill="none" fill-rule="evenodd">
        <g id="snipcart" fill="#F6E767" fill-rule="nonzero">
            <path d="M24.7,7.1 L14.7,1.3 C13.8,0.8 12.4,0.8 11.5,1.3 L1.5,7.1 C0.7,7.7 0,8.9 0,9.9 L0,21.4 C0,22.4 0.7,23.6 1.6,24.1 L11.6,29.9 C12.5,30.4 13.9,30.4 14.8,29.9 L24.8,24.1 C25.7,23.6 26.4,22.4 26.4,21.4 L26.4,9.9 C26.3,8.9 25.6,7.7 24.7,7.1 Z M22,13.4 L21,13.4 L21,11.6 C21,10.3 20,9.8 18,9.8 L17.9,9.8 C13.1,9.8 13.5,8 13.4,7.3 L13.3,7.3 C13.2,8 13.6,9.8 8.8,9.8 L8.7,9.8 C6.7,9.8 5.7,10.2 5.7,11.6 L5.7,13 L22,17.7 L22,19.7 C22,21.6 21.1,22.7 17.9,22.7 L17.7,22.7 C15.3,22.7 13.7,23.2 13.7,25.2 L12.7,25.2 C12.7,23.3 11.2,22.7 8.7,22.7 C5.6,22.7 4.6,21.6 4.6,19.7 L4.6,18 L5.6,18 L5.6,19.8 C5.6,21.1 6.6,21.6 8.6,21.6 L8.7,21.6 C13.5,21.6 13.1,23.4 13.2,24.1 L13.3,24.1 C13.4,23.4 13,21.6 17.8,21.6 L18,21.6 C20,21.6 21,21.2 21,19.8 L21,18.8 L4.6,14 L4.6,11.7 C4.6,9.8 5.5,8.7 8.7,8.7 L8.9,8.7 C11.4,8.7 12.9,8.2 12.9,6.2 L13.9,6.2 C13.9,8.1 15.4,8.7 17.9,8.7 L18,8.7 C21.1,8.7 22.1,9.8 22.1,11.7 L22,13.4 Z" id="Shape"></path>
        </g>
    </g>
</svg>
